symbols/web/wrap_text/materialsymbolsoutlined/wrap_text_wght100_48px.svg

<svg xmlns="http://www.w3.org/2000/svg" height="48" width="48"><path d="M29.45 39.6 24 34.15l5.45-5.5.8.8-4.15 4.15h8.5q2.1 0 3.55-1.475 1.45-1.475 1.45-3.575 0-2.05-1.45-3.525T34.6 23.55H9.3v-1.1h25.3q2.55 0 4.325 1.8 1.775 1.8 1.775 4.3 0 2.55-1.775 4.35-1.775 1.8-4.325 1.8h-8.5l4.15 4.1ZM9.3 34.7v-1.1h7.95v1.1Zm0-22.3v-1.1h29.4v1.1Z"/></svg>

<svg xmlns="http://www.w3.org/2000/svg" height="48" width="48"><path d="M29.45 39.6 24 34.15 29.45 28.65 30.25 29.45 26.1 33.6H34.6Q36.7 33.6 38.15 32.125Q39.6 30.65 39.6 28.55Q39.6 26.5 38.15 25.025Q36.7 23.55 34.6 23.55H9.3V22.45H34.6Q37.15 22.45 38.925 24.25Q40.7 26.05 40.7 28.55Q40.7 31.1 38.925 32.9Q37.15 34.7 34.6 34.7H26.1L30.25 38.8ZM9.3 12.4V11.3H38.7V12.4ZM9.3 34.7V33.6H17.25V34.7Z"/></svg>
